icons/1_Primary/Husky.svg

<svg width="1024" height="1024" fill="none" xmlns="http://www.w3.org/2000/svg"><g clip-path="url(#a)"><path d="M512 1024c282.77 0 512-229.23 512-512S794.77 0 512 0 0 229.23 0 512s229.23 512 512 512Z" fill="#FF837D"/><path d="M395.18 256c-38.6 0-89.4 116.82-140.19 329.14l248.88-237.71C462.22 312.89 419.56 256 395.18 256Zm233.65 0c-24.38 0-67 56.89-108.7 91.43L769 585.14C718.22 372.83 667.43 256 628.82 256h.01ZM512 355.56l-259 243.8s83.3 92.44 224.51 162.54C490.67 768 512 768 512 768s21.33.41 34.54-6.1C687.74 691.81 771 599.36 771 599.36l-259-243.8Z" fill="#fff"/></g><defs><clipPath id="a"><path fill="#fff" d="M0 0h1024v1024H0z"/></clipPath></defs></svg>

<svg width="1024" height="1024" viewBox="0 0 1024 1024" fill="none" xmlns="http://www.w3.org/2000/svg">
<g clip-path="url(#clip0_2_2463)">
<path d="M512 1024C794.77 1024 1024 794.77 1024 512C1024 229.23 794.77 0 512 0C229.23 0 0 229.23 0 512C0 794.77 229.23 1024 512 1024Z" fill="#FF837D"/>
<path d="M395.18 256C356.58 256 305.78 372.82 254.99 585.14L503.87 347.43C462.22 312.89 419.56 256 395.18 256ZM628.83 256C604.45 256 561.83 312.89 520.13 347.43L769 585.14C718.22 372.83 667.43 256 628.82 256H628.83ZM512 355.56L253 599.36C253 599.36 336.3 691.8 477.51 761.9C490.67 768 512 768 512 768C512 768 533.33 768.41 546.54 761.9C687.74 691.81 771 599.36 771 599.36L512 355.56Z" fill="white"/>
</g>
<defs>
<clipPath id="clip0_2_2463">
<rect width="1024" height="1024" fill="white"/>
</clipPath>
</defs>
</svg>
